images_breeze_svg/cmd/32/scaletext.svg

<svg viewBox="0 0 32 32" xmlns="http://www.w3.org/2000/svg"><path d="m13 4-8.9296875 23.824219-.0703125.175781h2l3.3925781-9h4.6074219 4 .607422 2.013672l-5.621094-15h-1zm1 2.4023438 3.849609 10.5976562h-3.849609-3.849609z" fill="#4d4d4d"/><path d="m23.5 4-1 1-4 4 .707031.7070312 3.792969-3.7929687v9.0859375h1v-9.0859375l3.792969 3.7929687.707031-.7070312-4-4zm-.5 13v9.085938l-3.792969-3.792969-.707031.707031 4 4 1 1 1-1 4-4-.707031-.707031-3.792969 3.792969v-9.085938z" fill="#1d99f3"/></svg>

<?xml version="1.0" encoding="UTF-8" standalone="no"?>
<svg
   xmlns:dc="http://purl.org/dc/elements/1.1/"
   xmlns:cc="http://creativecommons.org/ns#"
   xmlns:rdf="http://www.w3.org/1999/02/22-rdf-syntax-ns#"
   xmlns:svg="http://www.w3.org/2000/svg"
   xmlns="http://www.w3.org/2000/svg"
   xmlns:sodipodi="http://sodipodi.sourceforge.net/DTD/sodipodi-0.dtd"
   xmlns:inkscape="http://www.inkscape.org/namespaces/inkscape"
   viewBox="0 0 32 32"
   version="1.1"
   id="svg6"
   sodipodi:docname="scaletext.svg"
   inkscape:version="0.92.4 (unknown)"
   inkscape:export-filename="/home/rizmut/Dokumen/Rizmut/Github/tmp/breeze/cmd/32/scaletext.png"
   inkscape:export-xdpi="96"
   inkscape:export-ydpi="96">
  <metadata
     id="metadata12">
    <rdf:RDF>
      <cc:Work
         rdf:about="">
        <dc:format>image/svg+xml</dc:format>
        <dc:type
           rdf:resource="http://purl.org/dc/dcmitype/StillImage" />
      </cc:Work>
    </rdf:RDF>
  </metadata>
  <defs
     id="defs10" />
  <sodipodi:namedview
     pagecolor="#ffffff"
     bordercolor="#666666"
     borderopacity="1"
     objecttolerance="10"
     gridtolerance="10"
     guidetolerance="10"
     inkscape:pageopacity="0"
     inkscape:pageshadow="2"
     inkscape:window-width="1360"
     inkscape:window-height="714"
     id="namedview8"
     showgrid="true"
     inkscape:zoom="14.75"
     inkscape:cx="10.632289"
     inkscape:cy="15.8329"
     inkscape:window-x="0"
     inkscape:window-y="28"
     inkscape:window-maximized="1"
     inkscape:current-layer="svg6">
    <inkscape:grid
       type="xygrid"
       id="grid822" />
  </sodipodi:namedview>
  <path
     d="m13 4-8.9296875 23.824219-.0703125.175781h2l3.3925781-9h4.6074219 4 .607422 2.013672l-5.621094-15h-1zm1 2.4023438 3.849609 10.5976562h-3.849609-3.849609z"
     fill="#4d4d4d"
     id="path2" />
  <path
     d="m 23.5,4 -1,1 -4,4 0.707031,0.7070312 L 23,5.9140625 V 15 h 1 V 5.9140625 L 27.792969,9.7070312 28.5,9 24.5,5 Z M 23,17 v 9.085938 L 19.207031,22.292969 18.5,23 l 4,4 1,1 1,-1 4,-4 L 27.792969,22.292969 24,26.085938 V 17 Z"
     id="path4"
     inkscape:connector-curvature="0"
     style="fill:#1d99f3" />
</svg>
